X:115
T:Tommy Peoples' Mazurka (?)
R:mazurka
C:Tommy Peoples?
S:Tommy Peoples
N:I suspect this was composed by Peoples but I have no proof.
N:Looking for info. Note, the repeated {Ac}A2 and {DF}D2 are
N:TP's signature triplets.
Z:From a 1981 concert tape of Tommy Peoples, with apologies to him if this is proprietary.
M:3/4
K:D
{Ac}A2||d2 f2 a>g|b>g B2 g2|f>e Ac e>g|fd F2 {Ac}A2|
d2 f2 a>g|b>g B2 g2|f>e A>c e>c|1 d4 {Ac}A2:|2 d4 AF||
{DF}D2 F>A d>f|a2 g>d B/c/d|g2 f>d A/B/d|f2 dA F>E|
{DF}D2 F>A d>f|a2 gd B/c/d|g2 f>d A>d|1 F>A d2 F>E:|2 F>A d2||

